!!!OTL: DORT UNTEN IM THAELE
!!!ARE: Europa, Mitteleuropa, Deutschland
!!!SCT: E1053A
!!!YEM: Copyright 1995, estate of Helmut Schaffrath.
**kern
*ICvox
*Ivox
*M3/4
*k[b-]
*F:
{4c
=1
4.a
8a
4a
=2
4b-
4b-}
{4e
=3
4.b-
8b-
4b-
=4
4cc
4cc}
{4f
=5
4cc
4cc
4ff
=6
4dd
4.gg}
{8ff
=7
4ee
4dd
8cc
8e
=8
4f
4r}
{4cc
=9
4dd
4.bb-
8dd
=10
4cc
8aa
8cc}
{4ff
=11
4b-
8gg
8b-
4ee
=12
4a
8ff
8a}
{4cc
=13
4dd
4.bb-
8dd
=14
4cc
8aa
8cc}
{4ff
=15
4b-
8gg
8cc
4ee
=16
4ff
4r}
==
!!!AGN: Tanz - Lied
!!!ONB: ESAC (Essen Associative Code) Database: ERK3
!!!AMT: simple triple
!!!AIN: vox
!!!EED: Helmut Schaffrath
!!!EEV: 1.0
*-
